X:1
T:The Marriage Supper
T:The Marriage Supper
T:Frederick E. Rimanoczy
T:Frederick E. Rimanoczy, 1910
T:Public Domain Courtesy of the Cyber Hymnal™
T:Public Domain Courtesy of the Cyber Hymnal™
T:Public Domain Courtesy of the Cyber Hymnal™
C:Frederick E. Rimanoczy
Z:Public Domain
Z:Courtesy of the Cyber Hymnal™
%%score ( 1 2 ) ( 3 4 )
L:1/8
Q:1/4=88
M:4/4
K:D
V:1 treble 
V:2 treble 
V:3 bass 
V:4 bass 
V:1
 D>[DE] | [DF][DA][DA][DA] [DB][DA] [DA]>[DA] | [DB][Dd] [Dd]>[Dd] [Dd]2 [FA]>[FA] | %3
w: 1.~I’m in-|vit- ed to a sup- per, ’Tis a|marr- iage feast and grand, ’Tis the|
w: 2.~First, the|Lord Him- self with might- y shout And|thun- dering bu- gle blast, Will an-|
w: 3.~I can|see I- saiah and A- bra- ham, With|flow- ing gar- ments white, A- nd|
w: 4.~In the|back- ground myr- iad an- gels sit, With|shin- ing harps of gold, And the|
w: 5.~Hark! a|ho- ly still- ness now en- sues, The|an- gel songs are ceased, While a|
w: 6.~When the|Bride- groom drops those bless- èd hands, And|says the last “A- men,” The saints|
 [Fd]>[Fc] [Fd][FB] [FA][DF][DE]D | [DF][DE] [DF]>[CE] [CE]2 D>[DE] | %5
w: great- est of all ban- quets Ev- er|known on sea or land; There will|
w: nounce, “The feast is rea- dy!” Lo, the|Bride- groom comes at last; Then the|
w: I- saac, Job and Dan- iel there, All|crowned with heav’n- ly light; There are|
w: rap- turous mu- sic which they make, In|words can- not be told; ’Tis a|
w: heav’n- ly grace is be- ing asked, Up-|on this won- drous feast. See, the|
w: re- spond with one ac- cord, And the|an- gels sing a- gain: “Glo- ry,|
 [DF][DA][DA][DA] [DB][DA] [DA]>[DA] | [DB][Dd] [Dd]>[Dd] [Dd]2 [DA]>[DA] | %7
w: be a count- less host of guests, The|Bride- groom and the Bride, A- nd|
w: wait- ing saints of earth shall rise, With|thrill- ing hearts of love, A- nd|
w: Mo- ses and E- li- jah, Paul, And|Jer- e- mi- ah, too, A- nd|
w: song of won- drous ma- jes- ty, Their|swell- ing voic- es sing, While the|
w: Man with vis- age marred, but sweet, With|scars up- on His hands, I- n-|
w: glo- ry be to Him whose blood Hath|washed us from our sins”; A- nd|
 [Dd][Dd]!tenuto![Dd]!tenuto![Dd] !tenuto![Dd][Dd] !fermata![Dd]!ff![Dd]/[Dd]/ | %8
w: all who to this sup- per go, O- n|
w: in one grand pro- cess- ion go To the|
w: all the faith- ful mar- tyrs who U- n-|
w: hal- le- lu- jahs of the saints Ma- ke|
w: vokes the Fa- ther’s ble- ss- ing, As with|
w: ’midst the splen- dors of the scene, T- he|
 [FA][FA] [CA]>[CA] [A,D]2 ||"^Refrain" !fermata![Dd]>[Dc] | %10
w: shin- ing clouds shall ride.||
w: ban- quet hall a- bove.||
w: to the death were true.|Yes, I|
w: all the hea- vens ring.||
w: out- stretched arms He stands.||
w: mar- riage feast be- gins.||
 [DB]>[DB] [DB][DB] [DB][Dd] [Dd]>[GB] | [GB][FA] [FA]>[DF] [FA]2 [FA]>[FA] | %12
w: ||
w: ||
w: have an in- vi- ta- tion, I can|take my friends a- long, There is|
w: ||
w: ||
w: ||
 [Fd]>[Fc] [Fd][FB] [FA][DF][DE]D | [DF][DE] [DF]>[CE] [CE]2 D>[DE] | %14
w: ||
w: ||
w: on- ly one con- di- tion— You must|know re- demp- tion’s song. So, then,|
w: ||
w: ||
w: ||
 [DF][DA][DA][DA] [DB]>[DA] [DA][DA]/[DA]/ | [DB][Dd] [Dd]>[Dd] [Dd]2 [DA]2 | %16
w: ||
w: ||
w: put your wed- ding gar- ments on, For you|can- not do it there; The|
w: ||
w: ||
w: ||
 [Dd][Dd]!tenuto![Dd]!tenuto![Dd] !tenuto![Dd]!tenuto![Dd]!tenuto!!fermata![Dd]!ff![Dd] | %17
w: |
w: |
w: wed- ding bells are soon to ring, You|
w: |
w: |
w: |
 [FA][DF] [CE]>[A,D] [A,D]2 |] %18
w: |
w: |
w: have no time to spare.|
w: |
w: |
w: |
V:2
 D3/2 x/ | x8 | x8 | x7 D | x6 D3/2 x/ | x8 | x8 | x8 | x6 || x2 | x8 | x8 | x7 D | x6 D3/2 x/ | %14
 x8 | x8 | x8 | x6 |] %18
V:3
 [D,F,]>[D,G,] | [D,A,][D,F,][D,F,][D,F,] [D,G,][D,F,] [D,F,]>[D,F,] | %2
 [D,G,][G,B,] [G,B,]>[G,_B,] [F,A,]2 [D,D]>[D,D] | %3
 [D,A,]>[D,A,] [D,A,][D,D] [D,D][D,A,][D,G,][D,F,] | %4
 [B,,^G,][B,,G,] [B,,G,]>[A,,A,] [A,,A,]2 [D,F,]>[D,G,] | %5
 [D,A,][D,F,][D,F,][D,F,] [D,G,][D,F,] [D,F,]>[D,F,] | %6
 [D,G,][G,B,] [G,B,]>[G,_B,] [F,A,]2 [D,F,]>[D,F,] | %7
 [D,F,][D,F,][=C,F,][C,F,] [B,,G,][B,,G,] !fermata![_B,,^G,][B,,G,]/[B,,G,]/ | %8
 [A,,D][A,,D] [A,,G,]>[A,,G,] [D,F,]2 || !fermata![D,F,]>[D,F,] | %10
 G,>G, G,G, G,[G,B,] [G,B,]>[G,D] | [D,D][D,D] [D,D]>[D,A,] [D,D]2 [D,D]>[D,D] | %12
 [D,A,]>[D,A,] [D,A,][D,D] [D,D][D,A,][D,G,][D,F,] | %13
 [B,,^G,][B,,G,] [B,,G,]>[A,,A,] [A,,A,]2 [D,F,]>[D,G,] | %14
 [D,A,][D,F,][D,F,][D,F,] [D,G,]>[D,F,] [D,F,][D,F,]/[D,F,]/ | %15
 [D,G,][G,B,] [G,B,]>[G,_B,] [F,A,]2 [D,F,]2 | %16
 [D,F,][D,F,][=C,F,][C,F,] [B,,G,][B,,G,]!fermata![_B,,^G,][B,,G,] | %17
 [A,,D][A,,A,] [A,,G,]>[D,F,] [D,F,]2 |] %18
V:4
 x2 | x8 | x8 | x8 | x8 | x8 | x8 | x8 | x6 || x2 | G,>G, G,G, G, x3 | x8 | x8 | x8 | x8 | x8 | %16
 x8 | x6 |] %18

